public/images/iconbox/icon4.svg

<svg width="60" height="60" viewBox="0 0 60 60" fill="none" xmlns="http://www.w3.org/2000/svg">
<rect width="60" height="60" rx="4" fill="#2920D2"/>
<path d="M39.8587 45.8703H20.1061C19.7673 45.8703 19.4932 45.5965 19.4932 45.2574C19.4932 44.9184 19.7673 44.6445 20.1061 44.6445H39.8587C40.1978 44.6445 40.4716 44.9184 40.4716 45.2574C40.4716 45.5965 40.1978 45.8703 39.8587 45.8703Z" fill="white"/>
<path d="M26.444 45.8719C26.1049 45.8719 25.8311 45.5981 25.8311 45.259V39.4176C25.8311 39.0785 26.1049 38.8047 26.444 38.8047C26.7827 38.8047 27.0569 39.0785 27.0569 39.4176V45.259C27.0569 45.5981 26.7827 45.8719 26.444 45.8719Z" fill="white"/>
<path d="M32.9488 45.8719C32.6098 45.8719 32.3359 45.5981 32.3359 45.259V39.4176C32.3359 39.0785 32.6098 38.8047 32.9488 38.8047C33.2879 38.8047 33.5617 39.0785 33.5617 39.4176V45.259C33.5617 45.5981 33.2879 45.8719 32.9488 45.8719Z" fill="white"/>
<path d="M48.3871 35.1347H11.6129C11.2738 35.1347 11 34.8609 11 34.5218V15.5807C11 14.7093 11.6988 14 12.5568 14H47.4094C48.1848 14 48.8285 14.5773 48.9473 15.3311C48.9812 15.4078 49 15.4925 49 15.5807V34.5218C49 34.8609 48.7262 35.1347 48.3871 35.1347ZM12.2258 33.9089H47.7742V15.7714C47.7527 15.7112 47.7404 15.6475 47.7404 15.5807C47.7404 15.362 47.5689 15.2258 47.4094 15.2258H12.5568C12.3521 15.2258 12.2258 15.4102 12.2258 15.5807V33.9089Z" fill="white"/>
<path d="M47.4094 40.0302H12.5568C11.6988 40.0302 11 39.3215 11 38.4501V34.5231C11 34.1843 11.2738 33.9102 11.6129 33.9102H48.3871C48.7262 33.9102 49 34.1843 49 34.5231V38.4501C48.9431 39.3527 48.245 40.0302 47.4094 40.0302ZM12.2258 35.1354V38.4495C12.2258 38.6682 12.3973 38.8035 12.5568 38.8035H47.4094C47.6228 38.8035 47.7625 38.6033 47.7754 38.4097L47.7742 35.1354H12.2258Z" fill="white"/>
<path d="M20.7582 32.9833C19.3921 32.9833 18.2803 31.85 18.2803 30.4575C18.2803 29.065 19.3915 27.9316 20.7582 27.9316C22.125 27.9316 23.2368 29.065 23.2368 30.4575C23.2368 31.85 22.1244 32.9833 20.7582 32.9833ZM20.7582 29.1568C20.0675 29.1568 19.5061 29.7398 19.5061 30.4569C19.5061 31.1739 20.0675 31.7569 20.7582 31.7569C21.4489 31.7569 22.011 31.1739 22.011 30.4569C22.011 29.7398 21.4489 29.1568 20.7582 29.1568Z" fill="white"/>
<path d="M26.9053 23.9847C25.5391 23.9847 24.4268 22.8513 24.4268 21.4588C24.4268 20.0669 25.5385 18.9336 26.9053 18.9336C28.2721 18.9336 29.3833 20.0669 29.3833 21.4588C29.3833 22.8513 28.2721 23.9847 26.9053 23.9847ZM26.9053 20.1594C26.2146 20.1594 25.6526 20.7424 25.6526 21.4588C25.6526 22.1759 26.2146 22.7589 26.9053 22.7589C27.596 22.7589 28.1574 22.1759 28.1574 21.4588C28.1574 20.7424 27.596 20.1594 26.9053 20.1594Z" fill="white"/>
<path d="M27.3115 23.5365L28.192 22.6836L31.5124 26.1099L30.6319 26.9628L27.3115 23.5365Z" fill="white"/>
<path d="M21.1973 28.8322L25.6483 22.834L26.6323 23.5642L22.1813 29.5622L21.1973 28.8322Z" fill="white"/>
<path d="M32.9043 25.7386L37.4813 19.7383L38.456 20.4817L33.879 26.482L32.9043 25.7386Z" fill="white"/>
<path d="M39.2422 21.2021C37.8761 21.2021 36.7637 20.0687 36.7637 18.6762C36.7637 17.2837 37.8761 16.1504 39.2422 16.1504C40.6084 16.1504 41.7202 17.2837 41.7202 18.6762C41.7202 20.0687 40.609 21.2021 39.2422 21.2021ZM39.2422 17.3762C38.5515 17.3762 37.9895 17.9592 37.9895 18.6762C37.9895 19.3933 38.5515 19.9762 39.2422 19.9762C39.9329 19.9762 40.4944 19.3933 40.4944 18.6762C40.4944 17.9592 39.9329 17.3762 39.2422 17.3762Z" fill="white"/>
<path d="M32.2045 30.288C30.8383 30.288 29.7266 29.1547 29.7266 27.7622C29.7266 26.3697 30.8377 25.2363 32.2045 25.2363C33.5713 25.2363 34.6831 26.3697 34.6831 27.7622C34.6831 29.1547 33.5707 30.288 32.2045 30.288ZM32.2045 26.4621C31.5138 26.4621 30.9524 27.0451 30.9524 27.7622C30.9524 28.4792 31.5138 29.0622 32.2045 29.0622C32.8952 29.0622 33.4573 28.4792 33.4573 27.7622C33.4573 27.0451 32.8952 26.4621 32.2045 26.4621Z" fill="white"/>
</svg>

<svg id="Capa_1" data-name="Capa 1" xmlns="http://www.w3.org/2000/svg" width="21.17mm" height="21.17mm" viewBox="0 0 60 60"><defs><style>.cls-1{fill:#2f56dc;}.cls-2{fill:#fff;}</style></defs><rect class="cls-1" width="60" height="60" rx="4"/><path class="cls-2" d="M39.86,45.87H20.11a.61.61,0,0,1-.62-.61.62.62,0,0,1,.62-.62H39.86a.61.61,0,0,1,.61.62A.61.61,0,0,1,39.86,45.87Z" transform="translate(0 0)"/><path class="cls-2" d="M26.44,45.87a.61.61,0,0,1-.61-.61V39.42a.61.61,0,0,1,.61-.62.62.62,0,0,1,.62.62v5.84A.61.61,0,0,1,26.44,45.87Z" transform="translate(0 0)"/><path class="cls-2" d="M33,45.87a.61.61,0,0,1-.61-.61V39.42a.61.61,0,1,1,1.22,0v5.84A.61.61,0,0,1,33,45.87Z" transform="translate(0 0)"/><path class="cls-2" d="M48.39,35.13H11.61a.61.61,0,0,1-.61-.61V15.58A1.57,1.57,0,0,1,12.56,14H47.41A1.58,1.58,0,0,1,49,15.33a.7.7,0,0,1,0,.25V34.52A.61.61,0,0,1,48.39,35.13ZM12.23,33.91H47.77V15.77a.58.58,0,0,1,0-.19.34.34,0,0,0-.33-.35H12.56a.34.34,0,0,0-.33.35Z" transform="translate(0 0)"/><path class="cls-2" d="M47.41,40H12.56A1.57,1.57,0,0,1,11,38.45V34.52a.61.61,0,0,1,.61-.61H48.39a.61.61,0,0,1,.61.61v3.93A1.64,1.64,0,0,1,47.41,40ZM12.23,35.14v3.31a.34.34,0,0,0,.33.35H47.41a.41.41,0,0,0,.37-.39V35.14Z" transform="translate(0 0)"/><path class="cls-2" d="M20.76,33a2.53,2.53,0,1,1,2.48-2.52A2.5,2.5,0,0,1,20.76,33Zm0-3.82A1.3,1.3,0,1,0,22,30.46,1.27,1.27,0,0,0,20.76,29.16Z" transform="translate(0 0)"/><path class="cls-2" d="M26.91,24a2.53,2.53,0,1,1,2.47-2.52A2.5,2.5,0,0,1,26.91,24Zm0-3.82a1.3,1.3,0,1,0,1.25,1.3A1.28,1.28,0,0,0,26.91,20.16Z" transform="translate(0 0)"/><path class="cls-2" d="M27.31,23.54l.88-.86,3.32,3.43-.88.85Z" transform="translate(0 0)"/><path class="cls-2" d="M21.2,28.83l4.45-6,1,.73-4.45,6Z" transform="translate(0 0)"/><path class="cls-2" d="M32.9,25.74l4.58-6,1,.74-4.58,6Z" transform="translate(0 0)"/><path class="cls-2" d="M39.24,21.2a2.53,2.53,0,1,1,2.48-2.52A2.51,2.51,0,0,1,39.24,21.2Zm0-3.82a1.3,1.3,0,1,0,1.25,1.3A1.27,1.27,0,0,0,39.24,17.38Z" transform="translate(0 0)"/><path class="cls-2" d="M32.2,30.29a2.53,2.53,0,1,1,2.48-2.53A2.51,2.51,0,0,1,32.2,30.29Zm0-3.83a1.3,1.3,0,1,0,1.26,1.3A1.28,1.28,0,0,0,32.2,26.46Z" transform="translate(0 0)"/></svg>
